assets/images/hero/hero-year.svg

<?xml version="1.0" encoding="UTF-8"?><svg id="Layer_2" xmlns="http://www.w3.org/2000/svg" viewBox="0 0 305.21 47.07"><defs><style>.cls-1{fill:#403431;}</style></defs><g id="Layer_1-2"><path class="cls-1" d="M54.18,44.45c-.88-.69-1.43-1.66-1.65-2.9L47.52,0h-.58l-17.65,39.01L11.25,0h-.65l-4.82,41.44h-.03c-.17,1.29-.71,2.29-1.62,3.01-.91.71-1.94,1.07-3.1,1.07H0v.65h12.54v-.58h-.97c-.69,0-1.28-.29-1.78-.87-.5-.58-.74-1.22-.74-1.91v-.23l2.82-31.32,16.51,35.81h.65c.13-.91.37-1.86.71-2.88.34-1.01.84-2.25,1.49-3.72l13.55-30.18,2.93,32.31h0v.2c0,.69-.24,1.33-.71,1.91-.48.58-1.08.87-1.81.87h-.97v.58h14.03v-.65h-1.03c-1.12,0-2.13-.36-3.04-1.07Z"/><path class="cls-1" d="M127.3,44.45c-.88-.69-1.43-1.66-1.65-2.9L120.64,0h-.58l-17.65,39.01L84.37,0h-.65l-4.82,41.44h-.03c-.17,1.29-.71,2.29-1.62,3.01-.91.71-1.94,1.07-3.1,1.07h-1.03v.65h12.54v-.58h-.97c-.69,0-1.28-.29-1.78-.87-.5-.58-.74-1.22-.74-1.91v-.23l2.82-31.32,16.51,35.81h.65c.13-.91.37-1.86.71-2.88.34-1.01.84-2.25,1.49-3.72l13.55-30.18,2.93,32.31h0v.2c0,.69-.24,1.33-.71,1.91-.48.58-1.08.87-1.81.87h-.97v.58h14.03v-.65h-1.03c-1.12,0-2.13-.36-3.04-1.07Z"/><path class="cls-1" d="M184.12,44.38c-1.1-.71-1.98-1.54-2.66-2.46l-12.66-19.89,11.36-16.73c.73-.96,1.64-1.83,2.76-2.59,1.14-.78,2.38-1.16,3.72-1.16h.91v-.65h-14.55v.65h.78c.6,0,1.14.21,1.62.61.47.41.79.93.94,1.55.15.63.03,1.24-.36,1.84h.03s-8.82,13.92-8.82,13.92l-8.86-13.92h.01c-.35-.6-.44-1.22-.29-1.84.15-.62.47-1.14.97-1.55.5-.41,1.02-.61,1.58-.61h.78v-.65h-15.65v.65h.91c1.38,0,2.64.39,3.78,1.16,1.09.74,1.97,1.59,2.65,2.52l11.42,18.02-12.53,18.66c-.67.9-1.53,1.71-2.61,2.43-1.16.78-2.44,1.16-3.81,1.16h-.91v.65h14.68v-.65h-.84c-.56,0-1.09-.2-1.58-.61-.5-.41-.83-.93-1-1.55-.17-.62-.06-1.23.32-1.83l9.94-15.67,9.92,15.65h0c.56.95.55,1.85-.03,2.72-.58.86-1.33,1.29-2.23,1.29h-.78v.65h15.77v-.65h-.91c-1.34,0-2.59-.38-3.75-1.13Z"/><path class="cls-1" d="M239.85,44.38c-1.1-.71-1.98-1.54-2.66-2.46l-12.66-19.89,11.36-16.73c.73-.96,1.64-1.83,2.76-2.59,1.14-.78,2.38-1.16,3.72-1.16h.91v-.65h-14.55v.65h.78c.6,0,1.14.21,1.62.61.47.41.79.93.94,1.55.15.63.03,1.24-.36,1.84h.03s-8.82,13.92-8.82,13.92l-8.86-13.92h.01c-.35-.6-.44-1.22-.29-1.84.15-.62.47-1.14.97-1.55.5-.41,1.02-.61,1.58-.61h.78v-.65h-15.65v.65h.91c1.38,0,2.64.39,3.78,1.16,1.09.74,1.97,1.59,2.65,2.52l11.42,18.02-12.53,18.66c-.67.9-1.53,1.71-2.61,2.43-1.16.78-2.44,1.16-3.81,1.16h-.91v.65h14.68v-.65h-.84c-.56,0-1.09-.2-1.58-.61-.5-.41-.83-.93-1-1.55-.17-.62-.06-1.23.32-1.83l9.94-15.67,9.92,15.65h0c.56.95.55,1.85-.03,2.72-.58.86-1.33,1.29-2.23,1.29h-.78v.65h15.77v-.65h-.91c-1.34,0-2.59-.38-3.75-1.13Z"/><path class="cls-1" d="M292.22.91v.65h.58c.82,0,1.55.35,2.2,1.03.6.64.69,1.54.34,2.69l-14.18,34.17-13.54-33.88h.04c-.47-1.29-.4-2.28.23-2.97.62-.69,1.35-1.03,2.17-1.03h.58v-.65h-14.55v.65h.52c.99,0,2.03.31,3.1.94,1.08.62,1.94,1.67,2.59,3.14h.02s18.15,41.44,18.15,41.44h.58c0-.35.12-.88.36-1.62.24-.73.52-1.49.84-2.26.32-.78.72-1.7,1.2-2.78l15.5-34.78h.01c.69-1.46,1.57-2.51,2.65-3.14,1.08-.62,2.09-.94,3.04-.94h.58v-.65h-12.99Z"/></g></svg>

<svg width="306" height="48" viewBox="0 0 306 48" fill="none" xmlns="http://www.w3.org/2000/svg">
    <path d="M54.18 44.45C53.3 43.76 52.75 42.79 52.53 41.55L47.52 0H46.94L29.29 39.01L11.25 0H10.6L5.78 41.44H5.75C5.58 42.73 5.04 43.73 4.13 44.45C3.22 45.16 2.19 45.52 1.03 45.52H0V46.17H12.54V45.59H11.57C10.88 45.59 10.29 45.3 9.79 44.72C9.29 44.14 9.05 43.5 9.05 42.81V42.58L11.87 11.26L28.38 47.07H29.03C29.16 46.16 29.4 45.21 29.74 44.19C30.08 43.18 30.58 41.94 31.23 40.47L44.78 10.29L47.71 42.6V42.8C47.71 43.49 47.47 44.13 47 44.71C46.52 45.29 45.92 45.58 45.19 45.58H44.22V46.16H58.25V45.51H57.22C56.1 45.51 55.09 45.15 54.18 44.44V44.45Z" fill="#403431"/>
    <path d="M127.3 44.45C126.42 43.76 125.87 42.79 125.65 41.55L120.64 0H120.06L102.41 39.01L84.37 0H83.72L78.9 41.44H78.87C78.7 42.73 78.16 43.73 77.25 44.45C76.34 45.16 75.31 45.52 74.15 45.52H73.12V46.17H85.66V45.59H84.69C84 45.59 83.41 45.3 82.91 44.72C82.41 44.14 82.17 43.5 82.17 42.81V42.58L84.99 11.26L101.5 47.07H102.15C102.28 46.16 102.52 45.21 102.86 44.19C103.2 43.18 103.7 41.94 104.35 40.47L117.9 10.29L120.83 42.6V42.8C120.83 43.49 120.59 44.13 120.12 44.71C119.64 45.29 119.04 45.58 118.31 45.58H117.34V46.16H131.37V45.51H130.34C129.22 45.51 128.21 45.15 127.3 44.44V44.45Z" fill="#403431"/>
    <path d="M184.12 44.38C183.02 43.67 182.14 42.84 181.46 41.92L168.8 22.03L180.16 5.3C180.89 4.34 181.8 3.47 182.92 2.71C184.06 1.93 185.3 1.55 186.64 1.55H187.55V0.9H173V1.55H173.78C174.38 1.55 174.92 1.76 175.4 2.16C175.87 2.57 176.19 3.09 176.34 3.71C176.49 4.34 176.37 4.95 175.98 5.55H176.01L167.19 19.47L158.33 5.55H158.34C157.99 4.95 157.9 4.33 158.05 3.71C158.2 3.09 158.52 2.57 159.02 2.16C159.52 1.75 160.04 1.55 160.6 1.55H161.38V0.9H145.73V1.55H146.64C148.02 1.55 149.28 1.94 150.42 2.71C151.51 3.45 152.39 4.3 153.07 5.23L164.49 23.25L151.96 41.91C151.29 42.81 150.43 43.62 149.35 44.34C148.19 45.12 146.91 45.5 145.54 45.5H144.63V46.15H159.31V45.5H158.47C157.91 45.5 157.38 45.3 156.89 44.89C156.39 44.48 156.06 43.96 155.89 43.34C155.72 42.72 155.83 42.11 156.21 41.51L166.15 25.84L176.07 41.49C176.63 42.44 176.62 43.34 176.04 44.21C175.46 45.07 174.71 45.5 173.81 45.5H173.03V46.15H188.8V45.5H187.89C186.55 45.5 185.3 45.12 184.14 44.37L184.12 44.38Z" fill="#403431"/>
    <path d="M239.85 44.38C238.75 43.67 237.87 42.84 237.19 41.92L224.53 22.03L235.89 5.3C236.62 4.34 237.53 3.47 238.65 2.71C239.79 1.93 241.03 1.55 242.37 1.55H243.28V0.9H228.73V1.55H229.51C230.11 1.55 230.65 1.76 231.13 2.16C231.6 2.57 231.92 3.09 232.07 3.71C232.22 4.34 232.1 4.95 231.71 5.55H231.74L222.92 19.47L214.06 5.55H214.07C213.72 4.95 213.63 4.33 213.78 3.71C213.93 3.09 214.25 2.57 214.75 2.16C215.25 1.75 215.77 1.55 216.33 1.55H217.11V0.9H201.46V1.55H202.37C203.75 1.55 205.01 1.94 206.15 2.71C207.24 3.45 208.12 4.3 208.8 5.23L220.22 23.25L207.69 41.91C207.02 42.81 206.16 43.62 205.08 44.34C203.92 45.12 202.64 45.5 201.27 45.5H200.36V46.15H215.04V45.5H214.2C213.64 45.5 213.11 45.3 212.62 44.89C212.12 44.48 211.79 43.96 211.62 43.34C211.45 42.72 211.56 42.11 211.94 41.51L221.88 25.84L231.8 41.49C232.36 42.44 232.35 43.34 231.77 44.21C231.19 45.07 230.44 45.5 229.54 45.5H228.76V46.15H244.53V45.5H243.62C242.28 45.5 241.03 45.12 239.87 44.37L239.85 44.38Z" fill="#403431"/>
    <path d="M292.22 0.91V1.56H292.8C293.62 1.56 294.35 1.91 295 2.59C295.6 3.23 295.69 4.13 295.34 5.28L281.16 39.45L267.62 5.57H267.66C267.19 4.28 267.26 3.29 267.89 2.6C268.51 1.91 269.24 1.57 270.06 1.57H270.64V0.92H256.09V1.57H256.61C257.6 1.57 258.64 1.88 259.71 2.51C260.79 3.13 261.65 4.18 262.3 5.65H262.32L280.47 47.09H281.05C281.05 46.74 281.17 46.21 281.41 45.47C281.65 44.74 281.93 43.98 282.25 43.21C282.57 42.43 282.97 41.51 283.45 40.43L298.95 5.65H298.96C299.65 4.19 300.53 3.14 301.61 2.51C302.69 1.89 303.7 1.57 304.65 1.57H305.23V0.92H292.24L292.22 0.91Z" fill="#403431"/>
</svg>
